images/16758396.svg

<?xml version="1.0" encoding="UTF-8"?>
<svg xmlns="http://www.w3.org/2000/svg" xmlns:xlink="http://www.w3.org/1999/xlink" width="300pt" height="300pt" viewBox="0 0 300 300" version="1.1">
<defs>
<g>
<symbol overflow="visible" id="glyph0-0">
<path style="stroke:none;" d="M 0.453125 1.59375 L 0.453125 -6.34375 L 4.953125 -6.34375 L 4.953125 1.59375 Z M 0.953125 1.09375 L 4.453125 1.09375 L 4.453125 -5.84375 L 0.953125 -5.84375 Z M 0.953125 1.09375 "/>
</symbol>
<symbol overflow="visible" id="glyph0-1">
<path style="stroke:none;" d="M 0.890625 -6.5625 L 2.078125 -6.5625 L 4.984375 -1.078125 L 4.984375 -6.5625 L 5.84375 -6.5625 L 5.84375 0 L 4.65625 0 L 1.75 -5.484375 L 1.75 0 L 0.890625 0 Z M 0.890625 -6.5625 "/>
</symbol>
<symbol overflow="visible" id="glyph0-2">
<path style="stroke:none;" d="M 3.546875 -5.953125 C 2.898438 -5.953125 2.382812 -5.710938 2 -5.234375 C 1.625 -4.753906 1.4375 -4.101562 1.4375 -3.28125 C 1.4375 -2.445312 1.625 -1.789062 2 -1.3125 C 2.382812 -0.832031 2.898438 -0.59375 3.546875 -0.59375 C 4.191406 -0.59375 4.703125 -0.832031 5.078125 -1.3125 C 5.453125 -1.789062 5.640625 -2.445312 5.640625 -3.28125 C 5.640625 -4.101562 5.453125 -4.753906 5.078125 -5.234375 C 4.703125 -5.710938 4.191406 -5.953125 3.546875 -5.953125 Z M 3.546875 -6.6875 C 4.460938 -6.6875 5.195312 -6.375 5.75 -5.75 C 6.300781 -5.132812 6.578125 -4.3125 6.578125 -3.28125 C 6.578125 -2.238281 6.300781 -1.410156 5.75 -0.796875 C 5.195312 -0.179688 4.460938 0.125 3.546875 0.125 C 2.617188 0.125 1.878906 -0.179688 1.328125 -0.796875 C 0.773438 -1.410156 0.5 -2.238281 0.5 -3.28125 C 0.5 -4.3125 0.773438 -5.132812 1.328125 -5.75 C 1.878906 -6.375 2.617188 -6.6875 3.546875 -6.6875 Z M 3.546875 -6.6875 "/>
</symbol>
</g>
</defs>
<g id="surface35997">
<rect x="0" y="0" width="300" height="300" style="fill:rgb(100%,100%,100%);fill-opacity:1;stroke:none;"/>
<path style="fill:none;stroke-width:1.2;stroke-linecap:butt;stroke-linejoin:miter;stroke:rgb(0%,0%,0%);stroke-opacity:1;stroke-miterlimit:10;" d="M 264.132812 136.773438 L 248.132812 146.371094 "/>
<path style="fill:none;stroke-width:1.2;stroke-linecap:butt;stroke-linejoin:miter;stroke:rgb(0%,0%,0%);stroke-opacity:1;stroke-miterlimit:10;" d="M 248.132812 146.371094 L 231.820312 137.308594 "/>
<path style="fill:none;stroke-width:1.2;stroke-linecap:butt;stroke-linejoin:miter;stroke:rgb(0%,0%,0%);stroke-opacity:1;stroke-miterlimit:10;" d="M 244.367188 149.300781 L 231.320312 142.054688 "/>
<path style="fill:none;stroke-width:1.2;stroke-linecap:butt;stroke-linejoin:miter;stroke:rgb(0%,0%,0%);stroke-opacity:1;stroke-miterlimit:10;" d="M 248.441406 165.023438 L 248.132812 146.371094 "/>
<path style="fill:none;stroke-width:1.2;stroke-linecap:butt;stroke-linejoin:miter;stroke:rgb(0%,0%,0%);stroke-opacity:1;stroke-miterlimit:10;" d="M 231.820312 137.308594 L 215.820312 146.90625 "/>
<path style="fill:none;stroke-width:1.2;stroke-linecap:butt;stroke-linejoin:miter;stroke:rgb(0%,0%,0%);stroke-opacity:1;stroke-miterlimit:10;" d="M 215.820312 146.90625 L 216.128906 165.558594 "/>
<path style="fill:none;stroke-width:1.2;stroke-linecap:butt;stroke-linejoin:miter;stroke:rgb(0%,0%,0%);stroke-opacity:1;stroke-miterlimit:10;" d="M 211.464844 148.84375 L 211.710938 163.765625 "/>
<path style="fill:none;stroke-width:1.2;stroke-linecap:butt;stroke-linejoin:miter;stroke:rgb(0%,0%,100%);stroke-opacity:1;stroke-miterlimit:10;" d="M 201.042969 135.515625 L 208.433594 141.210938 "/>
<path style="fill:none;stroke-width:1.2;stroke-linecap:butt;stroke-linejoin:miter;stroke:rgb(0%,0%,0%);stroke-opacity:1;stroke-miterlimit:10;" d="M 208.433594 141.210938 L 215.820312 146.90625 "/>
<path style="fill:none;stroke-width:1.2;stroke-linecap:butt;stroke-linejoin:miter;stroke:rgb(0%,0%,0%);stroke-opacity:1;stroke-miterlimit:10;" d="M 216.128906 165.558594 L 201.738281 177.429688 "/>
<path style="fill:none;stroke-width:1.2;stroke-linecap:butt;stroke-linejoin:miter;stroke:rgb(0%,0%,0%);stroke-opacity:1;stroke-miterlimit:10;" d="M 216.128906 165.558594 L 224.285156 170.089844 "/>
<path style="fill:none;stroke-width:1.2;stroke-linecap:butt;stroke-linejoin:miter;stroke:rgb(0%,0%,100%);stroke-opacity:1;stroke-miterlimit:10;" d="M 224.285156 170.089844 L 232.441406 174.617188 "/>
<path style="fill:none;stroke-width:1.2;stroke-linecap:butt;stroke-linejoin:miter;stroke:rgb(0%,0%,0%);stroke-opacity:1;stroke-miterlimit:10;" d="M 201.738281 177.429688 L 183.484375 173.582031 "/>
<path style="fill:none;stroke-width:1.2;stroke-linecap:butt;stroke-linejoin:miter;stroke:rgb(0%,0%,0%);stroke-opacity:1;stroke-miterlimit:10;" d="M 183.484375 173.582031 L 175.113281 156.910156 "/>
<path style="fill:none;stroke-width:1.2;stroke-linecap:butt;stroke-linejoin:miter;stroke:rgb(0%,0%,0%);stroke-opacity:1;stroke-miterlimit:10;" d="M 175.113281 156.910156 L 182.925781 139.96875 "/>
<path style="fill:none;stroke-width:1.2;stroke-linecap:butt;stroke-linejoin:miter;stroke:rgb(0%,0%,0%);stroke-opacity:1;stroke-miterlimit:10;" d="M 182.925781 139.96875 L 191.984375 137.742188 "/>
<path style="fill:none;stroke-width:1.2;stroke-linecap:butt;stroke-linejoin:miter;stroke:rgb(0%,0%,100%);stroke-opacity:1;stroke-miterlimit:10;" d="M 191.984375 137.742188 L 201.042969 135.515625 "/>
<path style="fill:none;stroke-width:1.2;stroke-linecap:butt;stroke-linejoin:miter;stroke:rgb(0%,0%,100%);stroke-opacity:1;stroke-miterlimit:10;" d="M 201.042969 135.515625 L 202.96875 126.386719 "/>
<path style="fill:none;stroke-width:1.2;stroke-linecap:butt;stroke-linejoin:miter;stroke:rgb(0%,0%,0%);stroke-opacity:1;stroke-miterlimit:10;" d="M 202.96875 126.386719 L 204.894531 117.261719 "/>
<path style=" stroke:none;fill-rule:nonzero;fill:rgb(100%,100%,100%);fill-opacity:1;" d="M 198.042969 130.015625 L 205.042969 130.015625 L 205.042969 141.015625 L 198.042969 141.015625 Z M 198.042969 130.015625 "/>
<g style="fill:rgb(0%,0%,100%);fill-opacity:1;">
  <use xlink:href="#glyph0-1" x="198.042969" y="138.678711"/>
</g>
<path style=" stroke:none;fill-rule:nonzero;fill:rgb(0%,0%,0%);fill-opacity:1;" d="M 191.007812 104.800781 L 202.695312 119.710938 L 207.09375 114.808594 Z M 191.007812 104.800781 "/>
<path style="fill:none;stroke-width:1.2;stroke-linecap:butt;stroke-linejoin:miter;stroke:rgb(0%,0%,0%);stroke-opacity:1;stroke-miterlimit:10;" d="M 191.007812 104.800781 L 194.859375 86.542969 "/>
<path style="fill:none;stroke-width:1.2;stroke-linecap:butt;stroke-linejoin:miter;stroke:rgb(0%,0%,0%);stroke-opacity:1;stroke-miterlimit:10;" d="M 191.007812 104.800781 L 182.140625 107.695312 "/>
<path style="fill:none;stroke-width:1.2;stroke-linecap:butt;stroke-linejoin:miter;stroke:rgb(100%,0%,0%);stroke-opacity:1;stroke-miterlimit:10;" d="M 182.140625 107.695312 L 173.273438 110.59375 "/>
<path style="fill:none;stroke-width:1.2;stroke-linecap:butt;stroke-linejoin:miter;stroke:rgb(100%,0%,0%);stroke-opacity:1;stroke-miterlimit:10;" d="M 173.273438 110.59375 L 166.332031 104.363281 "/>
<path style="fill:none;stroke-width:1.2;stroke-linecap:butt;stroke-linejoin:miter;stroke:rgb(0%,0%,100%);stroke-opacity:1;stroke-miterlimit:10;" d="M 166.332031 104.363281 L 159.390625 98.132812 "/>
<path style=" stroke:none;fill-rule:nonzero;fill:rgb(100%,100%,100%);fill-opacity:1;" d="M 169.273438 105.09375 L 177.273438 105.09375 L 177.273438 116.09375 L 169.273438 116.09375 Z M 169.273438 105.09375 "/>
<g style="fill:rgb(100%,0%,0%);fill-opacity:1;">
  <use xlink:href="#glyph0-2" x="169.273438" y="113.756836"/>
</g>
<path style="fill:none;stroke-width:1.2;stroke-linecap:butt;stroke-linejoin:miter;stroke:rgb(0%,0%,100%);stroke-opacity:1;stroke-miterlimit:10;" d="M 159.390625 98.132812 L 150.523438 101.027344 "/>
<path style="fill:none;stroke-width:1.2;stroke-linecap:butt;stroke-linejoin:miter;stroke:rgb(0%,0%,0%);stroke-opacity:1;stroke-miterlimit:10;" d="M 150.523438 101.027344 L 141.65625 103.925781 "/>
<path style="fill:none;stroke-width:1.2;stroke-linecap:butt;stroke-linejoin:miter;stroke:rgb(0%,0%,100%);stroke-opacity:1;stroke-miterlimit:10;" d="M 156.253906 94.539062 L 149.160156 96.855469 "/>
<path style="fill:none;stroke-width:1.2;stroke-linecap:butt;stroke-linejoin:miter;stroke:rgb(0%,0%,0%);stroke-opacity:1;stroke-miterlimit:10;" d="M 149.160156 96.855469 L 142.066406 99.171875 "/>
<path style=" stroke:none;fill-rule:nonzero;fill:rgb(100%,100%,100%);fill-opacity:1;" d="M 156.390625 92.632812 L 163.390625 92.632812 L 163.390625 103.632812 L 156.390625 103.632812 Z M 156.390625 92.632812 "/>
<g style="fill:rgb(0%,0%,100%);fill-opacity:1;">
  <use xlink:href="#glyph0-1" x="156.390625" y="101.295898"/>
</g>
<path style="fill:none;stroke-width:1.2;stroke-linecap:butt;stroke-linejoin:miter;stroke:rgb(0%,0%,0%);stroke-opacity:1;stroke-miterlimit:10;" d="M 141.65625 103.925781 L 137.804688 122.179688 "/>
<path style=" stroke:none;fill-rule:nonzero;fill:rgb(0%,0%,0%);fill-opacity:1;" d="M 120.070312 127.972656 L 138.828125 125.308594 L 136.785156 119.050781 Z M 120.070312 127.972656 "/>
<path style="fill:none;stroke-width:1.2;stroke-linecap:butt;stroke-linejoin:miter;stroke:rgb(0%,0%,0%);stroke-opacity:1;stroke-miterlimit:10;" d="M 120.070312 127.972656 L 106.1875 115.511719 "/>
<path style="fill:none;stroke-width:1.2;stroke-linecap:butt;stroke-linejoin:miter;stroke:rgb(100%,0%,0%);stroke-opacity:1;stroke-miterlimit:10;" d="M 116.222656 146.230469 L 118.148438 137.101562 "/>
<path style="fill:none;stroke-width:1.2;stroke-linecap:butt;stroke-linejoin:miter;stroke:rgb(0%,0%,0%);stroke-opacity:1;stroke-miterlimit:10;" d="M 118.148438 137.101562 L 120.070312 127.972656 "/>
<path style="fill:none;stroke-width:1.2;stroke-linecap:butt;stroke-linejoin:miter;stroke:rgb(0%,0%,0%);stroke-opacity:1;stroke-miterlimit:10;" d="M 106.1875 115.511719 L 88.453125 121.304688 "/>
<path style="fill:none;stroke-width:1.2;stroke-linecap:butt;stroke-linejoin:miter;stroke:rgb(0%,0%,0%);stroke-opacity:1;stroke-miterlimit:10;" d="M 105.777344 120.265625 L 91.589844 124.898438 "/>
<path style="fill:none;stroke-width:1.2;stroke-linecap:butt;stroke-linejoin:miter;stroke:rgb(0%,0%,0%);stroke-opacity:1;stroke-miterlimit:10;" d="M 88.453125 121.304688 L 84.601562 139.5625 "/>
<path style="fill:none;stroke-width:1.2;stroke-linecap:butt;stroke-linejoin:miter;stroke:rgb(0%,0%,0%);stroke-opacity:1;stroke-miterlimit:10;" d="M 84.601562 139.5625 L 98.488281 152.023438 "/>
<path style=" stroke:none;fill-rule:nonzero;fill:rgb(0%,0%,0%);fill-opacity:1;" d="M 84.601562 139.5625 L 65.847656 142.226562 L 67.890625 148.484375 Z M 84.601562 139.5625 "/>
<path style="fill:none;stroke-width:1.2;stroke-linecap:butt;stroke-linejoin:miter;stroke:rgb(0%,0%,0%);stroke-opacity:1;stroke-miterlimit:10;" d="M 98.488281 152.023438 L 107.355469 149.125 "/>
<path style="fill:none;stroke-width:1.2;stroke-linecap:butt;stroke-linejoin:miter;stroke:rgb(100%,0%,0%);stroke-opacity:1;stroke-miterlimit:10;" d="M 107.355469 149.125 L 116.222656 146.230469 "/>
<path style=" stroke:none;fill-rule:nonzero;fill:rgb(0%,0%,0%);fill-opacity:1;" d="M 98.488281 152.023438 L 91.417969 169.597656 L 97.859375 170.957031 Z M 98.488281 152.023438 "/>
<path style=" stroke:none;fill-rule:nonzero;fill:rgb(100%,100%,100%);fill-opacity:1;" d="M 112.222656 140.730469 L 120.222656 140.730469 L 120.222656 151.730469 L 112.222656 151.730469 Z M 112.222656 140.730469 "/>
<g style="fill:rgb(100%,0%,0%);fill-opacity:1;">
  <use xlink:href="#glyph0-2" x="112.222656" y="149.393555"/>
</g>
<path style="fill:none;stroke-width:1.2;stroke-linecap:butt;stroke-linejoin:miter;stroke:rgb(0%,0%,0%);stroke-opacity:1;stroke-miterlimit:10;" d="M 94.636719 170.277344 L 101.582031 176.507812 "/>
<path style="fill:none;stroke-width:1.2;stroke-linecap:butt;stroke-linejoin:miter;stroke:rgb(100%,0%,0%);stroke-opacity:1;stroke-miterlimit:10;" d="M 101.582031 176.507812 L 108.523438 182.738281 "/>
<path style="fill:none;stroke-width:1.2;stroke-linecap:butt;stroke-linejoin:miter;stroke:rgb(100%,0%,0%);stroke-opacity:1;stroke-miterlimit:10;" d="M 108.523438 182.738281 L 106.597656 191.867188 "/>
<path style="fill:none;stroke-width:1.2;stroke-linecap:butt;stroke-linejoin:miter;stroke:rgb(0%,0%,0%);stroke-opacity:1;stroke-miterlimit:10;" d="M 106.597656 191.867188 L 104.671875 200.996094 "/>
<path style=" stroke:none;fill-rule:nonzero;fill:rgb(100%,100%,100%);fill-opacity:1;" d="M 104.523438 177.238281 L 112.523438 177.238281 L 112.523438 188.238281 L 104.523438 188.238281 Z M 104.523438 177.238281 "/>
<g style="fill:rgb(100%,0%,0%);fill-opacity:1;">
  <use xlink:href="#glyph0-2" x="104.523438" y="185.901367"/>
</g>
<path style="fill:none;stroke-width:1.2;stroke-linecap:butt;stroke-linejoin:miter;stroke:rgb(0%,0%,0%);stroke-opacity:1;stroke-miterlimit:10;" d="M 103.992188 198.910156 L 95.125 201.804688 "/>
<path style="fill:none;stroke-width:1.2;stroke-linecap:butt;stroke-linejoin:miter;stroke:rgb(100%,0%,0%);stroke-opacity:1;stroke-miterlimit:10;" d="M 95.125 201.804688 L 86.257812 204.703125 "/>
<path style="fill:none;stroke-width:1.2;stroke-linecap:butt;stroke-linejoin:miter;stroke:rgb(0%,0%,0%);stroke-opacity:1;stroke-miterlimit:10;" d="M 105.355469 203.082031 L 96.488281 205.976562 "/>
<path style="fill:none;stroke-width:1.2;stroke-linecap:butt;stroke-linejoin:miter;stroke:rgb(100%,0%,0%);stroke-opacity:1;stroke-miterlimit:10;" d="M 96.488281 205.976562 L 87.621094 208.875 "/>
<path style="fill:none;stroke-width:1.2;stroke-linecap:butt;stroke-linejoin:miter;stroke:rgb(0%,0%,0%);stroke-opacity:1;stroke-miterlimit:10;" d="M 104.671875 200.996094 L 118.558594 213.457031 "/>
<path style=" stroke:none;fill-rule:nonzero;fill:rgb(100%,100%,100%);fill-opacity:1;" d="M 78.9375 201.289062 L 86.9375 201.289062 L 86.9375 212.289062 L 78.9375 212.289062 Z M 78.9375 201.289062 "/>
<g style="fill:rgb(100%,0%,0%);fill-opacity:1;">
  <use xlink:href="#glyph0-2" x="78.9375" y="209.952148"/>
</g>
<path style="fill:none;stroke-width:1.2;stroke-linecap:butt;stroke-linejoin:miter;stroke:rgb(100%,0%,0%);stroke-opacity:1;stroke-miterlimit:10;" d="M 66.867188 145.355469 L 59.925781 139.125 "/>
<path style="fill:none;stroke-width:1.2;stroke-linecap:butt;stroke-linejoin:miter;stroke:rgb(0%,0%,0%);stroke-opacity:1;stroke-miterlimit:10;" d="M 59.925781 139.125 L 52.984375 132.894531 "/>
<path style=" stroke:none;fill-rule:nonzero;fill:rgb(100%,100%,100%);fill-opacity:1;" d="M 62.867188 139.855469 L 70.867188 139.855469 L 70.867188 150.855469 L 62.867188 150.855469 Z M 62.867188 139.855469 "/>
<g style="fill:rgb(100%,0%,0%);fill-opacity:1;">
  <use xlink:href="#glyph0-2" x="62.867188" y="148.518555"/>
</g>
<path style="fill:none;stroke-width:1.2;stroke-linecap:butt;stroke-linejoin:miter;stroke:rgb(0%,0%,0%);stroke-opacity:1;stroke-miterlimit:10;" d="M 55.132812 133.347656 L 57.058594 124.21875 "/>
<path style="fill:none;stroke-width:1.2;stroke-linecap:butt;stroke-linejoin:miter;stroke:rgb(100%,0%,0%);stroke-opacity:1;stroke-miterlimit:10;" d="M 57.058594 124.21875 L 58.980469 115.089844 "/>
<path style="fill:none;stroke-width:1.2;stroke-linecap:butt;stroke-linejoin:miter;stroke:rgb(0%,0%,0%);stroke-opacity:1;stroke-miterlimit:10;" d="M 50.835938 132.441406 L 52.761719 123.3125 "/>
<path style="fill:none;stroke-width:1.2;stroke-linecap:butt;stroke-linejoin:miter;stroke:rgb(100%,0%,0%);stroke-opacity:1;stroke-miterlimit:10;" d="M 52.761719 123.3125 L 54.6875 114.183594 "/>
<path style="fill:none;stroke-width:1.2;stroke-linecap:butt;stroke-linejoin:miter;stroke:rgb(0%,0%,0%);stroke-opacity:1;stroke-miterlimit:10;" d="M 52.984375 132.894531 L 35.25 138.6875 "/>
<path style=" stroke:none;fill-rule:nonzero;fill:rgb(100%,100%,100%);fill-opacity:1;" d="M 52.835938 109.136719 L 60.835938 109.136719 L 60.835938 120.136719 L 52.835938 120.136719 Z M 52.835938 109.136719 "/>
<g style="fill:rgb(100%,0%,0%);fill-opacity:1;">
  <use xlink:href="#glyph0-2" x="52.835938" y="117.799805"/>
</g>
<path style="fill:none;stroke-width:1.2;stroke-linecap:butt;stroke-linejoin:miter;stroke:rgb(0%,0%,100%);stroke-opacity:1;stroke-miterlimit:10;" d="M 232.441406 174.617188 L 240.441406 169.820312 "/>
<path style="fill:none;stroke-width:1.2;stroke-linecap:butt;stroke-linejoin:miter;stroke:rgb(0%,0%,0%);stroke-opacity:1;stroke-miterlimit:10;" d="M 240.441406 169.820312 L 248.441406 165.023438 "/>
<path style="fill:none;stroke-width:1.2;stroke-linecap:butt;stroke-linejoin:miter;stroke:rgb(0%,0%,100%);stroke-opacity:1;stroke-miterlimit:10;" d="M 231.78125 169.894531 L 238.183594 166.054688 "/>
<path style="fill:none;stroke-width:1.2;stroke-linecap:butt;stroke-linejoin:miter;stroke:rgb(0%,0%,0%);stroke-opacity:1;stroke-miterlimit:10;" d="M 238.183594 166.054688 L 244.582031 162.21875 "/>
<path style=" stroke:none;fill-rule:nonzero;fill:rgb(100%,100%,100%);fill-opacity:1;" d="M 229.441406 169.117188 L 236.441406 169.117188 L 236.441406 180.117188 L 229.441406 180.117188 Z M 229.441406 169.117188 "/>
<g style="fill:rgb(0%,0%,100%);fill-opacity:1;">
  <use xlink:href="#glyph0-1" x="229.441406" y="177.780273"/>
</g>
<path style="fill:none;stroke-width:1.2;stroke-linecap:butt;stroke-linejoin:miter;stroke:rgb(0%,0%,0%);stroke-opacity:1;stroke-miterlimit:10;" d="M 248.441406 165.023438 L 264.75 174.082031 "/>
</g>
</svg>

<svg xmlns="http://www.w3.org/2000/svg" xmlns:xlink="http://www.w3.org/1999/xlink" width="300pt" height="300pt" viewBox="0 0 300 300"><defs><symbol overflow="visible"><path d="M.453 1.594v-7.938h4.5v7.938zm.5-.5h3.5v-6.938h-3.5zm0 0"/></symbol><symbol overflow="visible" id="a"><path d="M.89-6.563H2.08l2.906 5.485v-5.484h.86V0H4.656L1.75-5.484V0H.89zm0 0"/></symbol><symbol overflow="visible" id="b"><path d="M3.547-5.953c-.65 0-1.164.242-1.547.72-.375.48-.563 1.13-.563 1.952 0 .835.188 1.49.563 1.967.383.48.898.72 1.547.72.644 0 1.156-.24 1.53-.72.376-.476.564-1.132.564-1.968 0-.822-.187-1.474-.562-1.954-.375-.477-.887-.72-1.53-.72zm0-.734c.914 0 1.648.312 2.203.937.55.617.828 1.438.828 2.47 0 1.042-.277 1.87-.828 2.483-.555.617-1.29.922-2.203.922-.93 0-1.668-.305-2.22-.922C.774-1.41.5-2.237.5-3.28c0-1.033.273-1.853.828-2.47.55-.625 1.29-.938 2.22-.938zm0 0"/></symbol></defs><g><path fill="#fff" d="M0 0h300v300H0z"/><path d="M264.133 136.773l-16 9.598M248.133 146.37l-16.313-9.06M244.367 149.3l-13.047-7.245M248.44 165.023l-.307-18.652M231.82 137.31l-16 9.596M215.82 146.906l.31 18.653M211.465 148.844l.246 14.922" stroke-width="1.2" stroke="#000" stroke-miterlimit="10" fill="none"/><path d="M201.043 135.516l7.39 5.695" stroke-width="1.2" stroke="#00f" stroke-miterlimit="10" fill="none"/><path d="M208.434 141.21l7.386 5.696M216.13 165.56l-14.392 11.87M216.13 165.56l8.155 4.53" stroke-width="1.2" stroke="#000" stroke-miterlimit="10" fill="none"/><path d="M224.285 170.09l8.156 4.527" stroke-width="1.2" stroke="#00f" stroke-miterlimit="10" fill="none"/><path d="M201.738 177.43l-18.254-3.848M183.484 173.582l-8.37-16.672M175.113 156.91l7.813-16.94M182.926 139.97l9.058-2.228" stroke-width="1.2" stroke="#000" stroke-miterlimit="10" fill="none"/><path d="M191.984 137.742l9.06-2.226M201.043 135.516l1.926-9.13" stroke-width="1.2" stroke="#00f" stroke-miterlimit="10" fill="none"/><path d="M202.97 126.387l1.925-9.125" stroke-width="1.2" stroke="#000" stroke-miterlimit="10" fill="none"/><path d="M198.043 130.016h7v11h-7zm0 0" fill="#fff"/><use xlink:href="#a" x="198.043" y="138.679" fill="#00f"/><path d="M191.008 104.8l11.687 14.91 4.4-4.9zm0 0"/><path d="M191.008 104.8l3.85-18.257M191.008 104.8l-8.867 2.895" stroke-width="1.2" stroke="#000" stroke-miterlimit="10" fill="none"/><path d="M182.14 107.695l-8.867 2.9M173.273 110.594l-6.94-6.23" stroke-width="1.2" stroke="#f00" stroke-miterlimit="10" fill="none"/><path d="M166.332 104.363l-6.94-6.23" stroke-width="1.2" stroke="#00f" stroke-miterlimit="10" fill="none"/><path d="M169.273 105.094h8v11h-8zm0 0" fill="#fff"/><use xlink:href="#b" x="169.273" y="113.757" fill="#f00"/><path d="M159.39 98.133l-8.867 2.894" stroke-width="1.2" stroke="#00f" stroke-miterlimit="10" fill="none"/><path d="M150.523 101.027l-8.867 2.9" stroke-width="1.2" stroke="#000" stroke-miterlimit="10" fill="none"/><path d="M156.254 94.54l-7.094 2.315" stroke-width="1.2" stroke="#00f" stroke-miterlimit="10" fill="none"/><path d="M149.16 96.855l-7.094 2.317" stroke-width="1.2" stroke="#000" stroke-miterlimit="10" fill="none"/><path d="M156.39 92.633h7v11h-7zm0 0" fill="#fff"/><use xlink:href="#a" x="156.391" y="101.296" fill="#00f"/><path d="M141.656 103.926l-3.85 18.254" stroke-width="1.2" stroke="#000" stroke-miterlimit="10" fill="none"/><path d="M120.07 127.973l18.758-2.664-2.043-6.26zm0 0"/><path d="M120.07 127.973l-13.882-12.46" stroke-width="1.2" stroke="#000" stroke-miterlimit="10" fill="none"/><path d="M116.223 146.23l1.925-9.128" stroke-width="1.2" stroke="#f00" stroke-miterlimit="10" fill="none"/><path d="M118.148 137.102l1.922-9.13M106.188 115.512l-17.735 5.793M105.777 120.266l-14.187 4.632M88.453 121.305l-3.85 18.257M84.602 139.563l13.886 12.46" stroke-width="1.2" stroke="#000" stroke-miterlimit="10" fill="none"/><path d="M84.602 139.563l-18.754 2.664 2.043 6.257zm0 0"/><path d="M98.488 152.023l8.867-2.898" stroke-width="1.2" stroke="#000" stroke-miterlimit="10" fill="none"/><path d="M107.355 149.125l8.868-2.895" stroke-width="1.2" stroke="#f00" stroke-miterlimit="10" fill="none"/><path d="M98.488 152.023l-7.07 17.575 6.44 1.36zm0 0"/><path d="M112.223 140.73h8v11h-8zm0 0" fill="#fff"/><use xlink:href="#b" x="112.223" y="149.394" fill="#f00"/><path d="M94.637 170.277l6.945 6.23" stroke-width="1.2" stroke="#000" stroke-miterlimit="10" fill="none"/><path d="M101.582 176.508l6.94 6.23M108.523 182.738l-1.925 9.13" stroke-width="1.2" stroke="#f00" stroke-miterlimit="10" fill="none"/><path d="M106.598 191.867l-1.926 9.13" stroke-width="1.2" stroke="#000" stroke-miterlimit="10" fill="none"/><path d="M104.523 177.238h8v11h-8zm0 0" fill="#fff"/><use xlink:href="#b" x="104.523" y="185.901" fill="#f00"/><path d="M103.992 198.91l-8.867 2.895" stroke-width="1.2" stroke="#000" stroke-miterlimit="10" fill="none"/><path d="M95.125 201.805l-8.867 2.898" stroke-width="1.2" stroke="#f00" stroke-miterlimit="10" fill="none"/><path d="M105.355 203.082l-8.867 2.895" stroke-width="1.2" stroke="#000" stroke-miterlimit="10" fill="none"/><path d="M96.488 205.977l-8.867 2.898" stroke-width="1.2" stroke="#f00" stroke-miterlimit="10" fill="none"/><path d="M104.672 200.996l13.887 12.46" stroke-width="1.2" stroke="#000" stroke-miterlimit="10" fill="none"/><path d="M78.938 201.29h8v11h-8zm0 0" fill="#fff"/><use xlink:href="#b" x="78.938" y="209.952" fill="#f00"/><path d="M66.867 145.355l-6.94-6.23" stroke-width="1.2" stroke="#f00" stroke-miterlimit="10" fill="none"/><path d="M59.926 139.125l-6.942-6.23" stroke-width="1.2" stroke="#000" stroke-miterlimit="10" fill="none"/><path d="M62.867 139.855h8v11h-8zm0 0" fill="#fff"/><use xlink:href="#b" x="62.867" y="148.519" fill="#f00"/><path d="M55.133 133.348l1.926-9.13" stroke-width="1.2" stroke="#000" stroke-miterlimit="10" fill="none"/><path d="M57.06 124.22l1.92-9.13" stroke-width="1.2" stroke="#f00" stroke-miterlimit="10" fill="none"/><path d="M50.836 132.44l1.926-9.127" stroke-width="1.2" stroke="#000" stroke-miterlimit="10" fill="none"/><path d="M52.762 123.313l1.925-9.13" stroke-width="1.2" stroke="#f00" stroke-miterlimit="10" fill="none"/><path d="M52.984 132.895l-17.734 5.792" stroke-width="1.2" stroke="#000" stroke-miterlimit="10" fill="none"/><path d="M52.836 109.137h8v11h-8zm0 0" fill="#fff"/><use xlink:href="#b" x="52.836" y="117.8" fill="#f00"/><path d="M232.44 174.617l8-4.797" stroke-width="1.2" stroke="#00f" stroke-miterlimit="10" fill="none"/><path d="M240.44 169.82l8-4.797" stroke-width="1.2" stroke="#000" stroke-miterlimit="10" fill="none"/><path d="M231.78 169.895l6.404-3.84" stroke-width="1.2" stroke="#00f" stroke-miterlimit="10" fill="none"/><path d="M238.184 166.055l6.398-3.836" stroke-width="1.2" stroke="#000" stroke-miterlimit="10" fill="none"/><path d="M229.44 169.117h7v11h-7zm0 0" fill="#fff"/><use xlink:href="#a" x="229.441" y="177.78" fill="#00f"/><path d="M248.44 165.023l16.31 9.06" stroke-width="1.2" stroke="#000" stroke-miterlimit="10" fill="none"/></g></svg>
